svgs/light/face-laugh-wink.svg

<svg xmlns="http://www.w3.org/2000/svg" viewBox="0 0 512 512"><!--! Font Awesome Pro 6.5.1 by @fontawesome - https://fontawesome.com License - https://fontawesome.com/license (Commercial License) Copyright 2023 Fonticons, Inc. --><path d="M480 256A224 224 0 1 0 32 256a224 224 0 1 0 448 0zM0 256a256 256 0 1 1 512 0A256 256 0 1 1 0 256zM256 400c52 0 97.1-32.8 115.7-80H140.3c18.6 47.2 63.7 80 115.7 80zM126.5 288H385.5c14.2 0 25.4 12.3 21.8 26c-18.1 68-79 118-151.3 118s-133.2-50-151.3-118c-3.6-13.7 7.6-26 21.8-26zm25.9-96a24 24 0 1 1 48 0 24 24 0 1 1 -48 0zm148.4 25.6c-5.3 7.1-15.3 8.5-22.4 3.2s-8.5-15.3-3.2-22.4c30.4-40.5 91.2-40.5 121.6 0c5.3 7.1 3.9 17.1-3.2 22.4s-17.1 3.9-22.4-3.2c-17.6-23.5-52.8-23.5-70.4 0z"/></svg>

<svg xmlns="http://www.w3.org/2000/svg" viewBox="0 0 512 512"><!--! Font Awesome Pro 6.1.1 by @fontawesome - https://fontawesome.com License - https://fontawesome.com/license (Commercial License) Copyright 2022 Fonticons, Inc. --><path d="M385.5 288C399.7 288 410.1 300.3 407.3 314C389.2 381.1 328.3 432 256 432C183.7 432 122.8 381.1 104.7 314C101.1 300.3 112.3 288 126.5 288H385.5zM371.7 320H140.3C158.9 367.2 204 400 256 400C308 400 353.1 367.2 371.7 320H371.7zM200.4 192C200.4 205.3 189.6 216 176.4 216C163.1 216 152.4 205.3 152.4 192C152.4 178.7 163.1 168 176.4 168C189.6 168 200.4 178.7 200.4 192zM278.4 220.8C271.3 215.5 269.9 205.5 275.2 198.4C305.6 157.9 366.4 157.9 396.8 198.4C402.1 205.5 400.7 215.5 393.6 220.8C386.5 226.1 376.5 224.7 371.2 217.6C353.6 194.1 318.4 194.1 300.8 217.6C295.5 224.7 285.5 226.1 278.4 220.8zM512 256C512 397.4 397.4 512 256 512C114.6 512 0 397.4 0 256C0 114.6 114.6 0 256 0C397.4 0 512 114.6 512 256zM256 32C132.3 32 32 132.3 32 256C32 379.7 132.3 480 256 480C379.7 480 480 379.7 480 256C480 132.3 379.7 32 256 32z"/></svg>
